public/icon_light/pin.svg

<svg fill="none" height="24" viewBox="0 0 24 24" width="24" xmlns="http://www.w3.org/2000/svg"><path d="m7.20005 2.3999c-1.32375 0-2.4 1.07625-2.4 2.4v15.6c0 .4313.2325.8325.6075 1.0425s.83625.2063 1.2075-.015l5.38495-3.2287 5.3813 3.2287c.3712.2213.8325.2288 1.2075.015.375-.2137.6112-.6112.6112-1.0425v-15.6c0-1.32375-1.0762-2.4-2.4-2.4z" fill="#fff"/></svg>

<svg width="24" height="24" viewBox="0 0 24 24" fill="none" xmlns="http://www.w3.org/2000/svg">
<path d="M7.20005 2.3999C5.8763 2.3999 4.80005 3.47615 4.80005 4.7999V20.3999C4.80005 20.8312 5.03255 21.2324 5.40755 21.4424C5.78255 21.6524 6.2438 21.6487 6.61505 21.4274L12 18.1987L17.3813 21.4274C17.7525 21.6487 18.2138 21.6562 18.5888 21.4424C18.9638 21.2287 19.2 20.8312 19.2 20.3999V4.7999C19.2 3.47615 18.1238 2.3999 16.8 2.3999H7.20005Z" fill="white"/>
</svg>
